X: 395
T: the Strolling Mason   #2
R: air, march
%S: s:2 b:10(6+4)
B: O'Neill's 1850 #395
N: The last note of each section is a half note (should be dotted.) [Fixed. JC]
O: J.O'Neill
Z: Chris Falt, cfalt@trytel.com
Q: "Moderate."
M: C
L: 1/8
K: G
"^A"[|] EG | ABAG E2D2 | EGAB c2 [1 BA | GABG A2GE | D4-.D2 :|[2 Bc | dedA B2A2 | "^fine"G6 |]
"^B"[|  BA | GABc d2Bd | e2ce d2BA | GABc A2GE | D4- "^-<A2"D2 |]
